svg_80x80/iris.svg

<svg viewBox="0 0 80 80" xmlns="http://www.w3.org/2000/svg">
<rect width="100%" height="100%" fill="#1A8CCB"/>
<path d="M55.1692 40C55.1692 49.2208 48.1435 56.6957 39.4769 56.6957C30.8103 56.6957 23.7846 49.2208 23.7846 40C23.7846 30.7792 30.8103 23.3043 39.4769 23.3043C48.1435 23.3043 55.1692 30.7792 55.1692 40Z" fill="white"/>
<path fill-rule="evenodd" clip-rule="evenodd" d="M49.6031 64C63.0771 64 74 53.2548 74 40V16H30.3969C16.9229 16 6 26.7452 6 40V64H49.6031ZM52.3256 20.0851H69.8473V40C69.8473 49.9847 62.3778 58.2532 52.6359 59.6929C58.5943 55.3554 62.4923 48.1524 62.4923 40C62.4923 31.7069 58.4586 24.3963 52.3256 20.0851ZM25.9751 20.5616C20.2104 24.9232 16.4615 32.0051 16.4615 40C16.4615 48.2931 20.4952 55.6037 26.6283 59.9149H10.1527V40C10.1527 30.4954 16.9211 22.546 25.9751 20.5616ZM39.4769 20.0851C29.3327 20.0851 20.6462 28.7433 20.6462 40C20.6462 51.2567 29.3327 59.9149 39.4769 59.9149C49.6212 59.9149 58.3077 51.2567 58.3077 40C58.3077 28.7433 49.6212 20.0851 39.4769 20.0851Z" fill="white"/>
</svg>

<svg xmlns="http://www.w3.org/2000/svg" viewBox="0 0 80 80">
  <rect width="100%" height="100%" fill="#1A8CCB"/>
  <path fill="#fff" d="M55.17 40c0 9.22-7.026 16.696-15.693 16.696S23.785 49.22 23.785 40c0-9.22 7.025-16.696 15.692-16.696S55.169 30.78 55.169 40Z"/>
  <path fill="#fff" fill-rule="evenodd" d="M49.603 64C63.077 64 74 53.255 74 40V16H30.397C16.923 16 6 26.745 6 40v24h43.603Zm2.723-43.915h17.521V40c0 9.985-7.47 18.253-17.211 19.693 5.958-4.338 9.856-11.54 9.856-19.693 0-8.293-4.033-15.604-10.166-19.915Zm-26.35.477C20.21 24.923 16.461 32.005 16.461 40c0 8.293 4.033 15.604 10.166 19.915H10.153V40c0-9.505 6.768-17.454 15.822-19.438Zm13.5-.477c-10.143 0-18.83 8.658-18.83 19.915s8.687 19.915 18.83 19.915c10.145 0 18.832-8.658 18.832-19.915S49.62 20.085 39.477 20.085Z" clip-rule="evenodd"/>
</svg>
